X: 1
T:Th' Row I' Th' Gutter
M:6/8
L:1/8
C:Tommy Armstrong
K:D
||D||:DDD DFA|dcd BAF| DDD dcB|
AFA B2A|ABc ded| cBA AFD|
DED DEF|EDC D2A|DDD DFA|
d\cd BAF| DDD dcB|AFA b2A|
ABc ded| cBA AFD| DED DEF|EDC D2|:
